src/actions/symbolic/object-blend-mode-symbolic.svg

<svg width="16" height="16" version="1.1" viewBox="0 0 16 16" xmlns="http://www.w3.org/2000/svg">
 <path d="m8 2c-0.554 0-1 0.446-1 1v3.127a4 4 0 0 1 2.873 2.873h3.127c0.554 0 1-0.446 1-1v-5c0-0.554-0.446-1-1-1z" fill="#363636" opacity=".40254" style="paint-order:stroke fill markers"/>
 <path d="m7 6.127v1.873c0 0.554 0.446 1 1 1h1.873a4 4 0 0 0-2.873-2.873z" fill="#363636" opacity=".80085" style="paint-order:stroke fill markers"/>
 <path d="m7.5 0c-1.3764 0-2.5 1.1236-2.5 2.5v1.584c-2.8333 0.47791-5 2.9491-5 5.916 0 3.3078 2.6922 6 6 6 2.9669 0 5.4381-2.1667 5.916-5h1.584c1.3764 0 2.5-1.1236 2.5-2.5v-6c0-1.3764-1.1236-2.5-2.5-2.5zm0 1h6c0.83965 0 1.5 0.66035 1.5 1.5v6c0 0.83965-0.66035 1.5-1.5 1.5h-2.5a5 5 0 0 1-0.11328 1h0.0137c-0.46143 2.2861-2.4755 4-4.9004 4-2.7673 0-5-2.2327-5-5 0-2.4249 1.7139-4.439 4-4.9004v0.0137a5 5 0 0 1 0.99997-0.11331v-2.5c0-0.83965 0.66035-1.5 1.5-1.5z" color="#000000" fill="#363636" stroke-miterlimit="10" style="-inkscape-stroke:none;paint-order:stroke fill markers"/>
 <path d="m6 6c-2.2091 0-4 1.7909-4 4s1.7909 4 4 4 4-1.7909 4-4h-2c-1.0994 0-2-0.90065-2-2z" fill="#363636" style="paint-order:stroke fill markers"/>
</svg>

<svg xmlns="http://www.w3.org/2000/svg" width="16" height="16">
    <path fill="#050505" d="M8 2c-.554 0-1 .446-1 1v3.127A4 4 0 0 1 9.873 9H13c.554 0 1-.446 1-1V3c0-.554-.446-1-1-1z" opacity=".403" style="paint-order:stroke fill markers"/>
    <path fill="#050505" d="M7 6.127V8c0 .554.446 1 1 1h1.873A4 4 0 0 0 7 6.127z" opacity=".801" style="paint-order:stroke fill markers"/>
    <path fill="#050505" fill-opacity=".7" d="M7.5 0A2.506 2.506 0 0 0 5 2.5v1.584C2.167 4.562 0 7.034 0 10c0 3.308 2.692 6 6 6 2.967 0 5.438-2.167 5.916-5H13.5c1.376 0 2.5-1.124 2.5-2.5v-6C16 1.124 14.876 0 13.5 0zm0 1h6c.84 0 1.5.66 1.5 1.5v6c0 .84-.66 1.5-1.5 1.5H11a5 5 0 0 1-.113 1h.013A4.992 4.992 0 0 1 6 15c-2.767 0-5-2.233-5-5a4.992 4.992 0 0 1 4-4.9v.013A5 5 0 0 1 6 5V2.5C6 1.66 6.66 1 7.5 1z" color="#000" style="-inkscape-stroke:none;paint-order:stroke fill markers"/>
    <path fill="#050505" d="M6 6a4 4 0 1 0 4 4H8c-1.1 0-2-.9-2-2z" opacity=".7" style="paint-order:stroke fill markers"/>
</svg>
